Origami/64x64/apps/ubuntu-tweak.svg

<svg width="64" height="64" version="1.1" xmlns="http://www.w3.org/2000/svg">
 <path d="M 60,32 A 28,28 0 0 1 32,60 28,28 0 0 1 4,32 28,28 0 0 1 32,4 28,28 0 0 1 60,32 Z" style="fill:#7ec639"/>
 <path d="M 59.982422,32.507812 A 28,28 0 0 1 32,60 28,28 0 0 1 4.0253906,32.519531 28,28 0 0 0 4,33 28,28 0 0 0 32,61 28,28 0 0 0 60,33 28,28 0 0 0 59.982422,32.507812 Z" style="opacity:.2"/>
 <path d="m47.86 30a16 16 0 0 0 -5.79 -10.3984c-0.65 0.2432-1.34 0.3984-2.07 0.3984-2.516 0-4.68-1.589-5.566-3.8046a16 16 0 0 0 -2.434 -0.1954 16 16 0 0 0 -6.208 1.254l3.043 5.2734a10 10 0 0 1 3.164 -0.528 10 10 0 0 1 9.789 8h6.0704zm-4e-3 4h-6.0586a10 10 0 0 1 -9.7968 8 10 10 0 0 1 -3.164 -0.52344l-3.0352 5.2578a16 16 0 0 0 6.198 1.266 16 16 0 0 0 2.442 -0.21c0.888-2.208 3.048-3.79 5.558-3.79 0.73222 0 1.42684 0.15346 2.0782 0.39844a16 16 0 0 0 5.778 -10.398zm-3.856-20a4 4 0 0 0 -4 -4 4 4 0 0 0 -4 4 4 4 0 0 0 4 4 4 4 0 0 0 4 -4zm0 36a4 4 0 0 0 -4 -4 4 4 0 0 0 -4 4 4 4 0 0 0 4 4 4 4 0 0 0 4 -4zm-18.624-25.472-3.036-5.2584a16 16 0 0 0 -5.836 8.8244c0.9179 1.05526 1.4961 2.4126 1.4961 3.9062 0 1.49176-0.57644 2.8476-1.49218 3.9024a16 16 0 0 0 5.8282 8.836l3.04-5.262a10 10 0 0 1 -3.376 -7.476 10 10 0 0 1 3.376 -7.472zm-9.376 7.472a4 4 0 0 0 -4 -4 4 4 0 0 0 -4 4 4 4 0 0 0 4 4 4 4 0 0 0 4 -4z" style="fill:#4d4d4d"/>
 <path d="m29.996013 24-0.176317 2.1072a6.2828667 6.2858 0 0 0 -1.836183 1.06252l-1.914286-0.9018-1.999067 3.4642 1.738008 1.2076a6.2828667 6.2858 0 0 0 -0.09596 1.06026 6.2828667 6.2858 0 0 0 0.09136 1.06474l-1.733568 1.20312 1.999067 3.4642 1.909828-0.89956a6.2828667 6.2858 0 0 0 1.840641 1.0558l0.176317 2.1116h3.998134l0.176317-2.1072a6.2828667 6.2858 0 0 0 1.836223 -1.06252l1.914266 0.9018 1.999067-3.4642-1.738028-1.2076a6.2828667 6.2858 0 0 0 0.09595 -1.06026 6.2828667 6.2858 0 0 0 -0.09136 -1.06474l1.733578-1.20312-1.999067-3.4642-1.909828 0.89956a6.2828667 6.2858 0 0 0 -1.840661 -1.0558l-0.176317-2.1116h-3.998134zm1.999067 5.7144a2.2847333 2.2858 0 0 1 2.284733 2.2856 2.2847333 2.2858 0 0 1 -2.284733 2.2856 2.2847333 2.2858 0 0 1 -2.284733 -2.2856 2.2847333 2.2858 0 0 1 2.284533 -2.2856z" style="fill:#4d4d4d"/>
 <path d="M 31.999023,4 A 28.000977,28 0 0 0 4,32 28.000977,28 0 0 0 4.0175787,32.492188 28.000977,28 0 0 1 31.999023,5 l 0.002,0 A 28.000977,28 0 0 1 59.974608,32.5 28.000977,28 0 0 0 60,32 28.000977,28 0 0 0 32.000977,4 l -0.002,0 z" style="fill:#ffffff;opacity:.2"/>
</svg>

<svg xmlns="http://www.w3.org/2000/svg" width="64" height="64" version="1.1">
 <path style="fill:#7ec639" d="M 60,32 A 28,28 0 0 1 32,60 28,28 0 0 1 4,32 28,28 0 0 1 32,4 28,28 0 0 1 60,32 Z"/>
 <path style="opacity:0.2" d="M 59.982422,32.507812 A 28,28 0 0 1 32,60 28,28 0 0 1 4.0253906,32.519531 28,28 0 0 0 4,33 28,28 0 0 0 32,61 28,28 0 0 0 60,33 28,28 0 0 0 59.982422,32.507812 Z"/>
 <path style="fill:#4d4d4d" d="M 47.86,30 A 16,16 0 0 0 42.07,19.6016 C 41.42,19.8448 40.73,20 40,20 37.484,20 35.32,18.411 34.434,16.1954 A 16,16 0 0 0 32,16 16,16 0 0 0 25.792,17.254 l 3.043,5.2734 a 10,10 0 0 1 3.164,-0.528 10,10 0 0 1 9.789,8 l 6.0704,0 z m -0.004,4 -6.0586,0 a 10,10 0 0 1 -9.7968,8 10,10 0 0 1 -3.164,-0.52344 l -3.0352,5.2578 a 16,16 0 0 0 6.198,1.266 16,16 0 0 0 2.442,-0.21 c 0.888,-2.208 3.048,-3.79 5.558,-3.79 0.73222,0 1.42684,0.15346 2.0782,0.39844 a 16,16 0 0 0 5.778,-10.398 z M 44,14 a 4,4 0 0 0 -4,-4 4,4 0 0 0 -4,4 4,4 0 0 0 4,4 4,4 0 0 0 4,-4 z m 0,36 a 4,4 0 0 0 -4,-4 4,4 0 0 0 -4,4 4,4 0 0 0 4,4 4,4 0 0 0 4,-4 z M 25.376,24.528 22.34,19.2696 a 16,16 0 0 0 -5.836,8.8244 c 0.9179,1.05526 1.4961,2.4126 1.4961,3.9062 0,1.49176 -0.57644,2.8476 -1.49218,3.9024 a 16,16 0 0 0 5.8282,8.836 l 3.04,-5.262 a 10,10 0 0 1 -3.376,-7.476 10,10 0 0 1 3.376,-7.472 z M 16,32 a 4,4 0 0 0 -4,-4 4,4 0 0 0 -4,4 4,4 0 0 0 4,4 4,4 0 0 0 4,-4 z"/>
 <path style="fill:#4d4d4d" d="m 29.996013,24 -0.176317,2.1072 a 6.2828667,6.2858 0 0 0 -1.836183,1.06252 l -1.914286,-0.9018 -1.999067,3.4642 1.738008,1.2076 a 6.2828667,6.2858 0 0 0 -0.09596,1.06026 6.2828667,6.2858 0 0 0 0.09136,1.06474 L 24.07,34.26784 l 1.999067,3.4642 1.909828,-0.89956 a 6.2828667,6.2858 0 0 0 1.840641,1.0558 l 0.176317,2.1116 3.998134,0 0.176317,-2.1072 a 6.2828667,6.2858 0 0 0 1.836223,-1.06252 l 1.914266,0.9018 1.999067,-3.4642 -1.738028,-1.2076 a 6.2828667,6.2858 0 0 0 0.09595,-1.06026 6.2828667,6.2858 0 0 0 -0.09136,-1.06474 L 39.92,29.73204 37.920933,26.26784 36.011105,27.1674 A 6.2828667,6.2858 0 0 0 34.170444,26.1116 L 33.994127,24 29.995993,24 Z m 1.999067,5.7144 A 2.2847333,2.2858 0 0 1 34.279813,32 2.2847333,2.2858 0 0 1 31.99508,34.2856 2.2847333,2.2858 0 0 1 29.710347,32 2.2847333,2.2858 0 0 1 31.99488,29.7144 Z"/>
 <path style="opacity:0.2;fill:#ffffff" d="M 31.999023,4 A 28.000977,28 0 0 0 4,32 28.000977,28 0 0 0 4.0175787,32.492188 28.000977,28 0 0 1 31.999023,5 l 0.002,0 A 28.000977,28 0 0 1 59.974608,32.5 28.000977,28 0 0 0 60,32 28.000977,28 0 0 0 32.000977,4 l -0.002,0 z"/>
</svg>
